Newaita-dark/.DP/16/mintupdate-error.svg

<?xml version="1.0" encoding="UTF-8"?>
<svg xmlns="http://www.w3.org/2000/svg" xmlns:xlink="http://www.w3.org/1999/xlink" width="16px" height="16px" viewBox="0 0 16 16" version="1.1">
<g id="surface1">
<path style=" stroke:none;fill-rule:nonzero;fill:rgb(93.725491%,32.549021%,31.37255%);fill-opacity:1;" d="M 7.9375 2.109375 C 7.324219 2.109375 6.90625 3.960938 6.335938 4.199219 C 5.769531 4.433594 4.164062 3.417969 3.726562 3.851562 C 3.292969 4.289062 4.308594 5.894531 4.074219 6.460938 C 3.835938 7.03125 1.984375 7.449219 1.984375 8.0625 C 1.984375 8.679688 3.835938 9.09375 4.074219 9.664062 C 4.308594 10.234375 3.292969 11.835938 3.726562 12.273438 C 4.164062 12.707031 5.769531 11.691406 6.335938 11.929688 C 6.90625 12.164062 7.324219 14.015625 7.9375 14.015625 C 8.554688 14.015625 8.96875 12.164062 9.539062 11.929688 C 10.109375 11.691406 11.710938 12.707031 12.148438 12.273438 C 12.582031 11.835938 11.566406 10.234375 11.804688 9.664062 C 12.039062 9.09375 13.890625 8.679688 13.890625 8.0625 C 13.890625 7.449219 12.039062 7.03125 11.804688 6.460938 C 11.566406 5.894531 12.582031 4.289062 12.148438 3.851562 C 11.710938 3.417969 10.109375 4.433594 9.539062 4.199219 C 8.96875 3.960938 8.554688 2.109375 7.9375 2.109375 Z M 6.066406 5.53125 C 6.234375 5.53125 6.40625 5.59375 6.535156 5.722656 L 7.9375 7.128906 L 9.339844 5.722656 C 9.601562 5.464844 10.019531 5.464844 10.277344 5.722656 C 10.535156 5.984375 10.535156 6.402344 10.277344 6.660156 L 8.875 8.0625 L 10.277344 9.464844 C 10.535156 9.726562 10.535156 10.144531 10.277344 10.402344 C 10.019531 10.660156 9.601562 10.660156 9.339844 10.402344 L 7.9375 9 L 6.535156 10.402344 C 6.277344 10.660156 5.859375 10.660156 5.597656 10.402344 C 5.339844 10.144531 5.339844 9.726562 5.597656 9.464844 L 7.003906 8.0625 L 5.597656 6.660156 C 5.339844 6.402344 5.339844 5.984375 5.597656 5.722656 C 5.730469 5.59375 5.898438 5.53125 6.066406 5.53125 Z M 6.066406 5.53125 "/>
</g>
</svg>

<svg xmlns="http://www.w3.org/2000/svg" width="16pt" height="16pt" viewBox="0 0 16 16"><path d="M7.938 2.11c-.965 0-.723 1.683-1.614 2.054-.894.371-1.914-.996-2.597-.312-.684.683.683 1.703.312 2.597-.371.89-2.055.649-2.055 1.614 0 .968 1.684.722 2.055 1.617.371.89-.996 1.91-.312 2.593.683.684 1.703-.68 2.597-.308.89.367.649 2.05 1.614 2.05.968 0 .722-1.683 1.617-2.05.89-.371 1.91.992 2.593.308.684-.683-.68-1.703-.308-2.593.367-.895 2.05-.649 2.05-1.617 0-.965-1.683-.723-2.05-1.614-.371-.894.992-1.914.308-2.597-.683-.684-1.703.683-2.593.312-.895-.371-.649-2.055-1.617-2.055zM6.066 5.53c.168 0 .34.063.47.192l1.402 1.406L9.34 5.723a.665.665 0 0 1 .937 0 .665.665 0 0 1 0 .937L8.875 8.062l1.402 1.403a.665.665 0 0 1 0 .937.665.665 0 0 1-.937 0L7.938 9l-1.403 1.402a.665.665 0 0 1-.937 0 .665.665 0 0 1 0-.937l1.406-1.402L5.598 6.66a.665.665 0 0 1 0-.937.669.669 0 0 1 .468-.192zm0 0" fill="#ef5350"/></svg>
